archdroid-icon-theme/Archdroid-Amber/apps/scalable/banshee-panel.svg

<?xml version="1.0" encoding="UTF-8" standalone="no"?>
<!-- Created with Inkscape (http://www.inkscape.org/) -->

<svg
   xmlns:dc="http://purl.org/dc/elements/1.1/"
   xmlns:cc="http://creativecommons.org/ns#"
   xmlns:rdf="http://www.w3.org/1999/02/22-rdf-syntax-ns#"
   xmlns:svg="http://www.w3.org/2000/svg"
   xmlns="http://www.w3.org/2000/svg"
   xmlns:sodipodi="http://sodipodi.sourceforge.net/DTD/sodipodi-0.dtd"
   xmlns:inkscape="http://www.inkscape.org/namespaces/inkscape"
   version="1.0"
   width="48"
   height="48"
   id="svg3215"
   inkscape:version="0.91 r13725"
   sodipodi:docname="banshee-panel.svg">
  <metadata
     id="metadata13">
    <rdf:RDF>
      <cc:Work
         rdf:about="">
        <dc:format>image/svg+xml</dc:format>
        <dc:type
           rdf:resource="http://purl.org/dc/dcmitype/StillImage" />
        <dc:title></dc:title>
      </cc:Work>
    </rdf:RDF>
  </metadata>
  <sodipodi:namedview
     pagecolor="#ffffff"
     bordercolor="#666666"
     borderopacity="1"
     objecttolerance="10"
     gridtolerance="10"
     guidetolerance="10"
     inkscape:pageopacity="0"
     inkscape:pageshadow="2"
     inkscape:window-width="1366"
     inkscape:window-height="713"
     id="namedview11"
     showgrid="false"
     inkscape:zoom="5.877723975612454"
     inkscape:cx="34.69258037811136"
     inkscape:cy="10.13346297463849"
     inkscape:window-x="0"
     inkscape:window-y="30"
     inkscape:window-maximized="1"
     inkscape:current-layer="svg3215"
     inkscape:snap-bbox="true"
     inkscape:bbox-nodes="true"
     inkscape:snap-page="true"
     inkscape:object-paths="true"
     inkscape:snap-midpoints="true"
     inkscape:snap-smooth-nodes="true"
     inkscape:object-nodes="true"
     inkscape:snap-intersection-paths="true"
     inkscape:snap-nodes="false" />
  <defs
     id="defs3217" />
  <path
     id="path4308"
     style="opacity:1;fill:#3465a4;fill-opacity:1;fill-rule:nonzero;stroke:none;stroke-width:3;stroke-miterlimit:4;stroke-dasharray:none;stroke-opacity:1"
     d="m 16,12.828125 0,-5.65625 -7.314453125,7.3125 L 11.515625,17.314453125 16,12.828125 Z M 17.171875,6 16,7.171875 16,28 20,28 20,6 17.171875,6 Z M 24,20 a 8,8 0 0 0 -8,8 8,8 0 0 0 8,8 8,8 0 0 0 8,-8 8,8 0 0 0 -8,-8 z m 0,4 a 4,4 0 0 1 4,4 4,4 0 0 1 -4,4 4,4 0 0 1 -4,-4 4,4 0 0 1 4,-4 z m 0,-10 0,4 A 10,10 0 0 1 34,28 10,10 0 0 1 24,38 10,10 0 0 1 14,28 l -4,0 a 14,14 0 0 0 8.642578125,12.93359375 14,14 0 0 0 15.2578125,-3.033203125 14,14 0 0 0 3.033203125,-15.2578125 A 14,14 0 0 0 24,14 Z" />
</svg>

<svg xmlns="http://www.w3.org/2000/svg" viewBox="0 0 48 48"><path d="m16 12.828v-5.656l-7.314 7.313 2.83 2.83 4.484-4.486m1.172-6.828l-1.172 1.172v20.828h4v-22h-2.828m6.828125 14a8 8 0 0 0 -8 8 8 8 0 0 0 8 8 8 8 0 0 0 8 -8 8 8 0 0 0 -8 -8zm0 4a4 4 0 0 1 4 4 4 4 0 0 1 -4 4 4 4 0 0 1 -4 -4 4 4 0 0 1 4 -4m0-10v4a10 10 0 0 1 10 10 10 10 0 0 1 -10 10 10 10 0 0 1 -10 -10h-4a14 14 0 0 0 8.642578 12.933594 14 14 0 0 0 15.257813 -3.033203 14 14 0 0 0 3.033203 -15.257813 14 14 0 0 0 -12.933594 -8.642578" fill="#3465a4"/></svg>
